; generated by PrusaSlicer 2.1.0+linux64 on 2019-11-15 at 15:10:41 UTC

; 

; external perimeters extrusion width = 0.45mm
; perimeters extrusion width = 0.45mm
; infill extrusion width = 0.45mm
; solid infill extrusion width = 0.45mm
; top infill extrusion width = 0.40mm
; first layer extrusion width = 0.42mm

M73 P0 R12
M73 Q0 S12
M201 X1000 Y1000 Z1000 E5000 ; sets maximum accelerations, mm/sec^2
M203 X200 Y200 Z12 E120 ; sets maximum feedrates, mm/sec
M204 P1250 R1250 T1250 ; sets acceleration (P, T) and retract acceleration (R), mm/sec^2
M205 X8.00 Y8.00 Z0.40 E1.50 ; sets the jerk limits, mm/sec
M205 S0 T0 ; sets the minimum extruding and travel feed rate, mm/sec
M107
M862.3 P "MK3S" ; printer model check
M862.1 P0.4 ; nozzle diameter check
M115 U3.8.1 ; tell printer latest fw version
G90 ; use absolute coordinates
M83 ; extruder relative mode
M104 S215 ; set extruder temp
M140 S60 ; set bed temp
M190 S60 ; wait for bed temp
M109 S215 ; wait for extruder temp
G28 W ; home all without mesh bed level
G80 ; mesh bed leveling
G1 Y-3.0 F1000.0 ; go outside print area
G92 E0.0
G1 X60.0 E9.0 F1000.0 ; intro line
M73 Q0 S12
M73 P0 R12
G1 X100.0 E12.5 F1000.0 ; intro line
G92 E0.0
M221 S95
G21 ; set units to millimeters
G90 ; use absolute coordinates
M83 ; use relative distances for extrusion
M900 K30 ; Filament gcode
;BEFORE_LAYER_CHANGE
G92 E0.0
;0.2


G1 E-0.80000 F2100.00000
G1 Z0.600 F10800.000
;AFTER_LAYER_CHANGE
;0.2
G1 X116.324 Y98.492
G1 Z0.200
G1 E0.80000 F2100.00000
M204 S1000
G1 F1200
G1 X116.827 Y97.672 E0.03016
G1 X117.248 Y97.274 E0.01818
G1 X117.735 Y96.968 E0.01804
G1 X118.272 Y96.762 E0.01804
G1 X118.840 Y96.665 E0.01804
G1 X130.954 Y96.657 E0.37985
G1 X131.983 Y96.844 E0.03278
G1 X132.881 Y97.379 E0.03278
G1 X133.535 Y98.195 E0.03278
G1 X133.864 Y99.187 E0.03278
G1 X133.889 Y110.552 E0.35635
G1 X133.679 Y111.500 E0.03042
G1 X133.173 Y112.328 E0.03042
G1 X132.725 Y112.747 E0.01923
G1 X132.196 Y113.066 E0.01936
G1 X131.613 Y113.267 E0.01936
G1 X131.004 Y113.342 E0.01923
G1 X118.897 Y113.339 E0.37958
G1 X117.950 Y113.129 E0.03042
G1 X117.122 Y112.623 E0.03042
G1 X116.703 Y112.175 E0.01923
G1 X116.384 Y111.646 E0.01936
G1 X116.184 Y111.067 E0.01923
G1 X116.108 Y110.458 E0.01923
G1 X116.112 Y99.435 E0.34563
G1 X116.311 Y98.551 E0.02841
G1 F8640
G1 X116.827 Y97.672 E-0.23527
G1 X117.248 Y97.274 E-0.13385
G1 X117.735 Y96.968 E-0.13287
G1 X118.272 Y96.762 E-0.13287
G1 X118.807 Y96.670 E-0.12514
G1 E-0.04000 F2100.00000
G1 Z0.800 F10800.000
G1 X117.928 Y97.293
G1 Z0.200
G1 E0.80000 F2100.00000
G1 F1200
G1 X118.890 Y97.039 E0.03119
G1 X130.954 Y97.034 E0.37825
G1 X131.860 Y97.201 E0.02888
G1 X132.648 Y97.677 E0.02888
G1 X133.218 Y98.400 E0.02888
G1 X133.495 Y99.279 E0.02888
G1 X133.512 Y110.527 E0.35267
G1 X133.324 Y111.372 E0.02717
G1 X132.865 Y112.107 E0.02717
G1 X132.474 Y112.464 E0.01660
G1 X132.015 Y112.734 E0.01672
G1 X131.509 Y112.904 E0.01672
G1 X130.983 Y112.965 E0.01660
G1 X118.927 Y112.963 E0.37801
G1 X118.081 Y112.776 E0.02717
G1 X117.343 Y112.315 E0.02729
G1 X116.986 Y111.924 E0.01660
G1 X116.717 Y111.468 E0.01660
G1 X116.548 Y110.967 E0.01660
G1 X116.485 Y110.437 E0.01672
G1 X116.488 Y99.469 E0.34389
G1 X116.677 Y98.624 E0.02717
G1 X117.135 Y97.893 E0.02704
G1 X117.880 Y97.329 E0.02931
G1 X118.103 Y97.630 F10800.000
G1 F1200
G1 X118.935 Y97.415 E0.02695
G1 X130.954 Y97.411 E0.37685
G1 X131.733 Y97.556 E0.02484
G1 X132.412 Y97.971 E0.02496
G1 X132.896 Y98.599 E0.02484
G1 X133.125 Y99.357 E0.02484
G1 X133.136 Y110.499 E0.34934
G1 X132.971 Y111.240 E0.02383
G1 X132.564 Y111.878 E0.02372
G1 X131.843 Y112.398 E0.02788
G1 X130.970 Y112.588 E0.02799
G1 X118.955 Y112.586 E0.37674
G1 X118.213 Y112.422 E0.02383
G1 X117.572 Y112.014 E0.02383
G1 X117.052 Y111.293 E0.02788
G1 X116.862 Y110.420 E0.02799
G1 X116.864 Y99.498 E0.34248
G1 X117.029 Y98.760 E0.02372
G1 X117.436 Y98.122 E0.02372
G1 X118.054 Y97.666 E0.02409
G1 F8640
G1 X118.935 Y97.415 E-0.21138
G1 X121.311 Y97.414 E-0.54862
G1 E-0.04000 F2100.00000
G1 Z0.800 F10800.000
G1 X119.637 Y100.187
G1 Z0.200
G1 E0.80000 F2100.00000
G1 F1200
G1 X122.863 Y100.187 E0.10114
G1 X122.863 Y107.887 E0.24143
G1 X127.137 Y107.887 E0.13401
G1 X127.137 Y100.187 E0.24143
G1 X130.363 Y100.187 E0.10114
G1 X130.363 Y109.813 E0.30181
G1 X119.637 Y109.813 E0.33630
G1 X119.637 Y100.247 E0.29993
G1 F8640
G1 X122.863 Y100.187 E-0.74499
G1 X122.863 Y100.252 E-0.01501
G1 E-0.04000 F2100.00000
G1 Z0.800 F10800.000
G1 X123.240 Y107.510
G1 Z0.200
G1 E0.80000 F2100.00000
G1 F1200
G1 X126.760 Y107.510 E0.11037
G1 X126.760 Y99.810 E0.24143
G1 X130.740 Y99.810 E0.12479
G1 X130.740 Y110.190 E0.32546
G1 X119.260 Y110.190 E0.35995
G1 X119.260 Y99.810 E0.32546
G1 X123.240 Y99.810 E0.12479
G1 X123.240 Y107.450 E0.23955
G1 X123.303 Y107.905 F10800.000
G1 X123.141 Y108.000
G1 F1200
G1 X124.671 Y109.530 E0.06868
G1 X125.211 Y109.530 E0.01714
G1 X123.851 Y108.170 E0.06106
G1 X124.391 Y108.170 E0.01714
G1 X125.751 Y109.530 E0.06106
G1 X126.291 Y109.530 E0.01714
G1 X124.931 Y108.170 E0.06106
G1 X125.471 Y108.170 E0.01714
G1 X126.831 Y109.530 E0.06106
G1 X127.371 Y109.530 E0.01714
G1 X126.010 Y108.170 E0.06106
G1 X126.550 Y108.170 E0.01714
G1 X127.910 Y109.530 E0.06106
G1 X128.450 Y109.530 E0.01714
G1 X127.090 Y108.170 E0.06106
G1 X127.420 Y108.170 E0.01047
G1 X127.420 Y107.960 E0.00667
G1 X128.990 Y109.530 E0.07049
G1 X129.530 Y109.530 E0.01714
G1 X127.420 Y107.420 E0.09473
G1 X127.420 Y106.880 E0.01714
G1 X130.080 Y109.530 E0.11919
G1 X130.080 Y109.000 E0.01681
G1 X127.420 Y106.340 E0.11942
G1 X127.420 Y105.800 E0.01714
G1 X130.080 Y108.461 E0.11942
G1 X130.080 Y107.921 E0.01714
G1 X127.420 Y105.261 E0.11942
G1 X127.420 Y104.721 E0.01714
G1 X130.080 Y107.381 E0.11942
G1 X130.080 Y106.841 E0.01714
G1 X127.420 Y104.181 E0.11942
G1 X127.420 Y103.641 E0.01714
G1 X130.080 Y106.301 E0.11942
G1 X130.080 Y105.761 E0.01714
G1 X127.420 Y103.101 E0.11942
G1 X127.420 Y102.561 E0.01714
G1 X130.080 Y105.221 E0.11942
G1 X130.080 Y104.682 E0.01714
G1 X127.420 Y102.021 E0.11942
G1 X127.420 Y101.482 E0.01714
G1 X130.080 Y104.142 E0.11942
G1 X130.080 Y103.602 E0.01714
G1 X127.420 Y100.942 E0.11942
G1 X127.420 Y100.470 E0.01498
G1 X127.488 Y100.470 E0.00216
G1 X130.080 Y103.062 E0.11636
G1 X130.080 Y102.522 E0.01714
G1 X128.028 Y100.470 E0.09213
G1 X128.568 Y100.470 E0.01714
G1 X130.080 Y101.982 E0.06789
G1 X130.080 Y101.442 E0.01714
G1 X129.107 Y100.470 E0.04366
G1 X129.647 Y100.470 E0.01714
G1 X130.250 Y101.072 E0.02704
G1 F8640
G1 X129.647 Y100.470 E-0.19673
G1 X129.107 Y100.470 E-0.12465
G1 X130.080 Y101.442 E-0.31761
G1 X130.080 Y101.967 E-0.12100
G1 E-0.04000 F2100.00000
G1 Z0.800 F10800.000
G1 X122.750 Y101.130
G1 Z0.200
G1 E0.80000 F2100.00000
G1 F1200
G1 X122.089 Y100.470 E0.02965
G1 X121.550 Y100.470 E0.01714
G1 X122.580 Y101.500 E0.04626
G1 X122.580 Y102.040 E0.01714
G1 X121.010 Y100.470 E0.07050
G1 X120.470 Y100.470 E0.01714
G1 X122.580 Y102.580 E0.09473
G1 X122.580 Y103.120 E0.01714
G1 X119.920 Y100.470 E0.11919
G1 X119.920 Y101.000 E0.01682
G1 X122.580 Y103.660 E0.11942
G1 X122.580 Y104.200 E0.01714
G1 X119.920 Y101.539 E0.11942
G1 X119.920 Y102.079 E0.01714
G1 X122.580 Y104.740 E0.11942
G1 X122.580 Y105.279 E0.01714
G1 X119.920 Y102.619 E0.11942
G1 X119.920 Y103.159 E0.01714
G1 X122.580 Y105.819 E0.11942
G1 X122.580 Y106.359 E0.01714
G1 X119.920 Y103.699 E0.11942
G1 X119.920 Y104.239 E0.01714
G1 X122.580 Y106.899 E0.11942
G1 X122.580 Y107.439 E0.01714
G1 X119.920 Y104.779 E0.11942
G1 X119.920 Y105.318 E0.01714
G1 X124.132 Y109.530 E0.18906
G1 X123.592 Y109.530 E0.01714
G1 X119.920 Y105.858 E0.16482
G1 X119.920 Y106.398 E0.01714
G1 X123.052 Y109.530 E0.14059
G1 X122.512 Y109.530 E0.01714
G1 X119.920 Y106.938 E0.11636
G1 X119.920 Y107.478 E0.01714
G1 X121.972 Y109.530 E0.09212
G1 X121.432 Y109.530 E0.01714
G1 X119.920 Y108.018 E0.06789
G1 X119.920 Y108.558 E0.01714
G1 X120.892 Y109.530 E0.04365
G1 X120.353 Y109.530 E0.01714
G1 X119.750 Y108.928 E0.02704
M106 S255
;BEFORE_LAYER_CHANGE
G92 E0.0
;0.35


G1 F8640
G1 X120.353 Y109.530 E-0.19669
G1 X120.892 Y109.530 E-0.12465
G1 X119.920 Y108.558 E-0.31757
G1 X119.920 Y108.033 E-0.12109
G1 E-0.04000 F2100.00000
G1 Z0.800 F10800.000
;AFTER_LAYER_CHANGE
;0.35
G1 X117.950 Y113.129
G1 Z0.350
G1 E0.80000 F2100.00000
G1 F1001
G1 X117.122 Y112.623 E0.02347
G1 X116.703 Y112.175 E0.01483
G1 X116.384 Y111.646 E0.01494
G1 X116.184 Y111.067 E0.01483
G1 X116.108 Y110.458 E0.01483
G1 X116.112 Y99.435 E0.26660
G1 X116.324 Y98.492 E0.02337
G1 X116.827 Y97.672 E0.02326
G1 X117.248 Y97.274 E0.01402
G1 X117.735 Y96.968 E0.01392
G1 X118.272 Y96.762 E0.01392
G1 X118.840 Y96.665 E0.01392
G1 X130.954 Y96.657 E0.29299
G1 X131.983 Y96.844 E0.02528
G1 X132.881 Y97.379 E0.02528
G1 X133.535 Y98.195 E0.02528
G1 X133.864 Y99.187 E0.02528
G1 X133.889 Y110.552 E0.27487
G1 X133.679 Y111.500 E0.02347
G1 X133.173 Y112.328 E0.02347
G1 X132.725 Y112.747 E0.01483
G1 X132.196 Y113.066 E0.01494
G1 X131.613 Y113.267 E0.01494
G1 X131.004 Y113.342 E0.01483
G1 X118.897 Y113.339 E0.29279
G1 X118.009 Y113.142 E0.02202
G1 F8640
G1 X117.122 Y112.623 E-0.23719
G1 X116.703 Y112.175 E-0.14164
G1 X116.384 Y111.646 E-0.14261
G1 X116.184 Y111.067 E-0.14163
G1 X116.132 Y110.650 E-0.09693
G1 E-0.04000 F2100.00000
G1 Z0.950 F10800.000
G1 X119.693 Y109.757
G1 Z0.350
G1 E0.80000 F2100.00000
M204 S800
G1 F1001
G1 X119.693 Y100.243 E0.24790
G1 X122.807 Y100.243 E0.08115
G1 X122.807 Y107.943 E0.20063
G1 X127.193 Y107.943 E0.11427
G1 X127.193 Y100.243 E0.20063
G1 X130.307 Y100.243 E0.08115
G1 X130.307 Y109.757 E0.24790
G1 X119.753 Y109.757 E0.27500
M204 S1000
G1 F8640
G1 X119.732 Y106.466 E-0.76000
G1 E-0.04000 F2100.00000
G1 Z0.950 F10800.000
G1 X123.225 Y107.525
G1 Z0.350
G1 E0.80000 F2100.00000
M204 S800
G1 F1001
G1 X126.775 Y107.525 E0.09250
G1 X126.775 Y99.825 E0.20063
G1 X130.725 Y99.825 E0.10292
G1 X130.725 Y110.175 E0.26968
G1 X119.275 Y110.175 E0.29834
G1 X119.275 Y99.825 E0.26968
G1 X123.225 Y99.825 E0.10292
G1 X123.225 Y107.465 E0.19907
M204 S1000
G1 X123.288 Y107.920 F10800.000
G1 F8640
G1 X126.516 Y107.521 E-0.76000
G1 E-0.04000 F2100.00000
G1 Z0.950 F10800.000
G1 X127.318 Y108.058
G1 Z0.350
G1 E0.80000 F2100.00000
M204 S1250
G1 F1001
G1 X129.994 Y105.382 E0.09967
G1 X129.994 Y104.785 E0.01573
G1 X127.506 Y107.272 E0.09267
G1 X127.506 Y106.675 E0.01573
G1 X129.994 Y104.187 E0.09267
G1 X129.994 Y103.590 E0.01573
G1 X127.506 Y106.078 E0.09267
G1 X127.506 Y105.480 E0.01573
G1 X129.994 Y102.993 E0.09267
G1 X129.994 Y102.395 E0.01573
G1 X127.506 Y104.883 E0.09267
G1 X127.506 Y104.286 E0.01573
G1 X129.994 Y101.798 E0.09267
G1 X129.994 Y101.201 E0.01573
G1 X127.506 Y103.688 E0.09267
G1 X127.506 Y103.091 E0.01573
G1 X129.994 Y100.603 E0.09267
G1 X129.994 Y100.556 E0.00124
G1 X129.444 Y100.556 E0.01449
G1 X127.506 Y102.494 E0.07218
G1 X127.506 Y101.896 E0.01573
G1 X128.846 Y100.556 E0.04993
G1 X128.249 Y100.556 E0.01573
G1 X127.506 Y101.299 E0.02768
G1 X127.506 Y100.702 E0.01573
G1 X127.840 Y100.368 E0.01243
M204 S1000
G1 F8640
G1 X127.506 Y100.702 E-0.10898
G1 X127.506 Y101.299 E-0.13792
G1 X128.249 Y100.556 E-0.24263
G1 X128.846 Y100.556 E-0.13792
G1 X128.441 Y100.962 E-0.13255
G1 E-0.04000 F2100.00000
G1 Z0.950 F10800.000
G1 X120.672 Y100.368
G1 Z0.350
G1 E0.80000 F2100.00000
M204 S1250
G1 F1001
G1 X120.006 Y101.034 E0.02481
G1 X120.006 Y101.632 E0.01573
G1 X121.082 Y100.556 E0.04006
G1 X121.679 Y100.556 E0.01573
G1 X120.006 Y102.229 E0.06231
G1 X120.006 Y102.826 E0.01573
G1 X122.276 Y100.556 E0.08456
G1 X122.494 Y100.556 E0.00573
G1 X122.494 Y100.936 E0.01000
G1 X120.006 Y103.423 E0.09267
G1 X120.006 Y104.021 E0.01573
G1 X122.494 Y101.533 E0.09267
G1 X122.494 Y102.130 E0.01573
G1 X120.006 Y104.618 E0.09267
G1 X120.006 Y105.215 E0.01573
G1 X122.494 Y102.728 E0.09267
G1 X122.494 Y103.325 E0.01573
G1 X120.006 Y105.813 E0.09267
G1 X120.006 Y106.410 E0.01573
G1 X122.494 Y103.922 E0.09267
G1 X122.494 Y104.520 E0.01573
G1 X120.006 Y107.007 E0.09267
G1 X120.006 Y107.605 E0.01573
G1 X122.494 Y105.117 E0.09267
G1 X122.494 Y105.714 E0.01573
G1 X120.006 Y108.202 E0.09267
G1 X120.006 Y108.799 E0.01573
G1 X122.494 Y106.311 E0.09267
G1 X122.494 Y106.909 E0.01573
G1 X120.006 Y109.396 E0.09267
G1 X120.006 Y109.444 E0.00125
G1 X120.556 Y109.444 E0.01448
G1 X122.494 Y107.506 E0.07218
G1 X122.494 Y108.103 E0.01573
G1 X121.153 Y109.444 E0.04993
G1 X121.751 Y109.444 E0.01573
G1 X122.938 Y108.256 E0.04424
G1 X123.536 Y108.256 E0.01573
G1 X122.348 Y109.444 E0.04424
G1 X122.945 Y109.444 E0.01573
G1 X124.133 Y108.256 E0.04424
G1 X124.730 Y108.256 E0.01573
G1 X123.543 Y109.444 E0.04424
G1 X124.140 Y109.444 E0.01573
G1 X125.328 Y108.256 E0.04424
G1 X125.925 Y108.256 E0.01573
G1 X124.737 Y109.444 E0.04424
G1 X125.335 Y109.444 E0.01573
G1 X126.522 Y108.256 E0.04424
G1 X127.120 Y108.256 E0.01573
G1 X125.932 Y109.444 E0.04424
G1 X126.529 Y109.444 E0.01573
G1 X129.994 Y105.979 E0.12906
G1 X129.994 Y106.576 E0.01573
G1 X127.126 Y109.444 E0.10681
G1 X127.724 Y109.444 E0.01573
G1 X129.994 Y107.174 E0.08456
G1 X129.994 Y107.771 E0.01573
G1 X128.321 Y109.444 E0.06231
G1 X128.918 Y109.444 E0.01573
G1 X129.994 Y108.368 E0.04006
G1 X129.994 Y108.966 E0.01573
G1 X129.328 Y109.632 E0.02482
M204 S1000
;BEFORE_LAYER_CHANGE
G92 E0.0
;0.5


G1 F8640
G1 X129.994 Y108.966 E-0.21756
G1 X129.994 Y108.368 E-0.13792
G1 X128.918 Y109.444 E-0.35121
G1 X128.687 Y109.444 E-0.05332
G1 E-0.04000 F2100.00000
G1 Z0.950 F10800.000
;AFTER_LAYER_CHANGE
;0.5
G1 X133.679 Y111.500
G1 Z0.500
G1 E0.80000 F2100.00000
G1 F997
G1 X133.173 Y112.328 E0.02347
G1 X132.725 Y112.747 E0.01483
G1 X132.196 Y113.066 E0.01494
G1 X131.613 Y113.267 E0.01494
G1 X131.004 Y113.342 E0.01483
G1 X118.897 Y113.339 E0.29279
G1 X117.950 Y113.129 E0.02347
G1 X117.122 Y112.623 E0.02347
G1 X116.703 Y112.175 E0.01483
G1 X116.384 Y111.646 E0.01494
G1 X116.184 Y111.067 E0.01483
G1 X116.108 Y110.458 E0.01483
G1 X116.112 Y99.435 E0.26660
G1 X116.324 Y98.492 E0.02337
G1 X116.827 Y97.672 E0.02326
G1 X117.248 Y97.274 E0.01402
G1 X117.735 Y96.968 E0.01392
G1 X118.272 Y96.762 E0.01392
G1 X118.840 Y96.665 E0.01392
G1 X130.954 Y96.657 E0.29299
G1 X131.983 Y96.844 E0.02528
G1 X132.881 Y97.379 E0.02528
G1 X133.535 Y98.195 E0.02528
G1 X133.864 Y99.187 E0.02528
G1 X133.889 Y110.552 E0.27487
G1 X133.692 Y111.441 E0.02202
G1 F8640
G1 X133.173 Y112.328 E-0.23719
G1 X132.725 Y112.747 E-0.14164
G1 X132.196 Y113.066 E-0.14261
G1 X131.613 Y113.267 E-0.14261
G1 X131.200 Y113.318 E-0.09596
G1 E-0.04000 F2100.00000
G1 Z1.100 F10800.000
G1 X130.307 Y109.757
G1 Z0.500
G1 E0.80000 F2100.00000
M204 S800
G1 F997
G1 X119.693 Y109.757 E0.27657
G1 X119.693 Y100.243 E0.24790
G1 X122.807 Y100.243 E0.08115
G1 X122.807 Y107.943 E0.20063
G1 X127.193 Y107.943 E0.11427
G1 X127.193 Y100.243 E0.20063
G1 X130.307 Y100.243 E0.08115
G1 X130.307 Y109.697 E0.24634
M204 S1000
G1 F8640
G1 X127.016 Y109.716 E-0.76000
G1 E-0.04000 F2100.00000
G1 Z1.100 F10800.000
G1 X123.225 Y107.525
G1 Z0.500
G1 E0.80000 F2100.00000
M73 Q9 S11
M204 S800
G1 F997
G1 X126.775 Y107.525 E0.09250
M73 P9 R11
G1 X126.775 Y99.825 E0.20063
G1 X130.725 Y99.825 E0.10292
G1 X130.725 Y110.175 E0.26968
G1 X119.275 Y110.175 E0.29834
G1 X119.275 Y99.825 E0.26968
G1 X123.225 Y99.825 E0.10292
G1 X123.225 Y107.465 E0.19907
M204 S1000
G1 X123.288 Y107.920 F10800.000
G1 X122.682 Y107.460
M204 S1250
G1 F997
G1 X120.006 Y104.785 E0.09967
G1 X120.006 Y104.187 E0.01573
G1 X122.494 Y106.675 E0.09267
G1 X122.494 Y106.078 E0.01573
G1 X120.006 Y103.590 E0.09267
G1 X120.006 Y102.993 E0.01573
G1 X122.494 Y105.480 E0.09267
G1 X122.494 Y104.883 E0.01573
G1 X120.006 Y102.395 E0.09267
G1 X120.006 Y101.798 E0.01573
G1 X122.494 Y104.286 E0.09267
G1 X122.494 Y103.689 E0.01573
G1 X120.006 Y101.201 E0.09267
G1 X120.006 Y100.604 E0.01573
G1 X122.494 Y103.091 E0.09267
G1 X122.494 Y102.494 E0.01573
G1 X120.556 Y100.556 E0.07218
G1 X121.153 Y100.556 E0.01573
G1 X122.494 Y101.897 E0.04993
G1 X122.494 Y101.299 E0.01573
G1 X121.751 Y100.556 E0.02768
G1 X122.348 Y100.556 E0.01573
G1 X122.682 Y100.890 E0.01244
M204 S1000
G1 F8640
G1 X122.348 Y100.556 E-0.10902
G1 X121.751 Y100.556 E-0.13792
